X:195
T:Close By
C:Solo by David Grisman
N:From the album "Home is Where the Heart Is" Transcribed by Mike Stangeland
L:1/8
Q:1/4=209
M:4/4
K:A
z8 | z2 E2 EF A2 | (3"A"[ae][ae][ae] (3[ae][ae][ae] (3[ae][ae][ae] (3eAA | (3B=cc (3Bcc (3BcB AF | 
(3AAA (3AAA (3AFE (3EEF | (3[B=G][BG][BG] (3[BG][BG][BG] (3[BG][BG][BG] (3BAd | 
(3"D"e[af][af] (3[af][af][af] (3[af][af][af] (3fdA | d2 [f2d2] AB d2 | (3e[af][af] (3[af][af][af] (3[af][af][af] fA | 
d4 (3z2d2 d2 | {e}(3f2a2 a2 {e}(3f2a2 a2 | {c'}=c'4 a=g e^d | "A"d=c Ad cA =GE | 
=GA AE EF A2 | (3[eB][ec][ec] (3[ec][ec][ec] [ec]e =cB | "E"[AA]F ED [ec][e=c] {G}AF | 
(3"A"[AA][AA][AA] [A2A2] (3EFE =CB, | A,8 | 
 

